static/img/svg/user-check.svg

<svg xmlns="http://www.w3.org/2000/svg" width="24" height="24" viewBox="0 0 24 24"><path d="M20.294 8.292l-4.3 4.292-1.292-1.292-1.414 1.414 2.706 2.704 5.712-5.702zM4 18.5C4 16.264 5.374 14 8 14s4 2.264 4 4.5v.5h2v-.5c0-2.54-1.212-4.651-3.076-5.729C11.594 12.063 12 11.1 12 10c0-2.28-1.72-4-4-4s-4 1.72-4 4c0 1.1.406 2.063 1.076 2.771C3.212 13.849 2 15.96 2 18.5v.5h2v-.5zM6 10c0-1.178.822-2 2-2s2 .822 2 2-.822 2-2 2-2-.822-2-2z"/></svg>

<svg xmlns="http://www.w3.org/2000/svg" width="24" height="24" viewBox="0 0 24 24"><path d="M20.294 8.292L15.994 12.584 14.702 11.292 13.288 12.706 15.994 15.41 21.706 9.708zM4 18.5C4 16.264 5.374 14 8 14s4 2.264 4 4.5V19h2v-.5c0-2.54-1.212-4.651-3.076-5.729C11.594 12.063 12 11.1 12 10c0-2.28-1.72-4-4-4s-4 1.72-4 4c0 1.1.406 2.063 1.076 2.771C3.212 13.849 2 15.96 2 18.5V19h2V18.5zM8 8c1.178 0 2 .822 2 2s-.822 2-2 2-2-.822-2-2S6.822 8 8 8z"/></svg>
